images/c10.svg

<svg height="250" viewBox="0 0 250 250" width="250" xmlns="http://www.w3.org/2000/svg"><path d="m125 249.832031-125-62.480469v-124.703124l125-62.480469 125 62.480469v124.703124zm0 0" fill="#0e6cac"/><g fill="#fff"><path d="m103.390625 142.25c-.359375 2.730469-1.289063 5.386719-2.746094 7.84375-1.359375 2.351562-3.15625 4.507812-5.324219 6.375-2.019531 1.738281-4.382812 3.152344-6.984374 4.1875-2.332032.964844-4.886719 1.480469-7.480469 1.507812-2.988281.003907-5.9375-.585937-8.609375-1.71875-3.007813-1.375-5.503906-3.4375-7.199219-5.957031-2.386719-3.539062-4.050781-7.394531-4.929687-11.402343-1.355469-5.929688-1.972657-11.964844-1.839844-18.003907-.132813-6.039062.484375-12.070312 1.839844-18 .886718-3.988281 2.507812-7.828125 4.796874-11.386719 1.574219-2.480468 3.917969-4.546874 6.773438-5.976562 6.503906-3.128906 14.710938-1.886719 19.539062 2.960938 4.101563 3.875 7.066407 8.515624 8.644532 13.550781h2.121094v-20.429688s-9.171876-1.144531-9.171876 5.484375c-1.175781-1.035156-2.503906-1.9375-3.941406-2.695312-1.5-.769532-3.085937-1.40625-4.734375-1.898438-1.972656-.59375-4.054687-.886718-6.148437-.863281-4.160156.027344-8.261719.851563-11.996094 2.414063-4.136719 1.746093-7.773438 4.242187-10.648438 7.3125-3.417968 3.636718-6.023437 7.777343-7.691406 12.210937-2.042968 5.582031-3.019531 11.40625-2.894531 17.25-.125 5.84375.851563 11.664063 2.894531 17.246094 1.644532 4.46875 4.277344 8.625 7.757813 12.253906 3.003906 3.105469 6.789062 5.605469 11.074219 7.3125 4.019531 1.59375 8.402343 2.417969 12.835937 2.414063 3.296875.019531 6.5625-.53125 9.597656-1.617188 3.007813-1.054688 5.742188-2.605469 8.039063-4.566406 2.355468-2.03125 4.289062-4.390625 5.71875-6.976563 1.535156-2.792969 2.488281-5.792969 2.824218-8.859375h-2.117187zm0 0"/><path d="m136.289062 153.289062h-.097656c-2.078125 0-3.761718-1.433593-3.761718-3.195312v-60.386719c0-1.765625-1.6875-3.195312-3.765626-3.195312h-12.917968c-2.078125 0-3.761719 1.429687-3.761719 3.195312v3.667969c0 1.765625 1.683594 3.199219 3.761719 3.199219h.9375c2.078125 0 3.765625 1.429687 3.765625 3.195312v50.324219c0 1.761719-1.6875 3.195312-3.765625 3.195312h-.9375c-2.070313 0-3.753906 1.421876-3.761719 3.179688v3.671875c0 1.765625 1.683594 3.195313 3.761719 3.195313h21.367187c2.078125 0 3.761719-1.429688 3.761719-3.195313v-3.671875c0-1.765625-1.683594-3.195312-3.761719-3.195312zm0 0"/><path d="m201.386719 86.496094h-51.832031c-2.082032 0-3.765626 1.429687-3.765626 3.195312v70.460938c0 1.765625 1.683594 3.199218 3.765626 3.199218h51.78125c2.082031 0 3.765624-1.433593 3.765624-3.199218v-70.460938c-.007812-1.746094-1.660156-3.164062-3.714843-3.195312zm-39.789063 10.078125h27.742188l-31.570313 50.867187v-47.671875c-.003906-.859375.398438-1.683593 1.121094-2.285156s1.699219-.929687 2.707031-.910156zm27.792969 56.714843h-27.757813l31.519532-50.898437v47.6875c.003906.851563-.390625 1.667969-1.09375 2.269531-.707032.601563-1.667969.941406-2.667969.941406zm0 0"/></g></svg>

<svg xmlns="http://www.w3.org/2000/svg" xmlns:xlink="http://www.w3.org/1999/xlink" width="250px" height="250px" viewBox="0 0 250 250" version="1.1">
<g id="surface1">
<path style=" stroke:none;fill-rule:nonzero;fill:rgb(5.490196%,42.352942%,67.450982%);fill-opacity:1;" d="M 125 249.832031 L 0 187.351562 L 0 62.648438 L 125 0.167969 L 250 62.648438 L 250 187.351562 Z M 125 249.832031 "/>
<path style=" stroke:none;fill-rule:nonzero;fill:rgb(100%,100%,100%);fill-opacity:1;" d="M 103.390625 142.25 C 103.03125 144.980469 102.101562 147.636719 100.644531 150.09375 C 99.285156 152.445312 97.488281 154.601562 95.320312 156.46875 C 93.300781 158.207031 90.9375 159.621094 88.335938 160.65625 C 86.003906 161.621094 83.449219 162.136719 80.855469 162.164062 C 77.867188 162.167969 74.917969 161.578125 72.246094 160.445312 C 69.238281 159.070312 66.742188 157.007812 65.046875 154.488281 C 62.660156 150.949219 60.996094 147.09375 60.117188 143.085938 C 58.761719 137.15625 58.144531 131.121094 58.277344 125.082031 C 58.144531 119.042969 58.761719 113.011719 60.117188 107.082031 C 61.003906 103.09375 62.625 99.253906 64.914062 95.695312 C 66.488281 93.214844 68.832031 91.148438 71.6875 89.71875 C 78.191406 86.589844 86.398438 87.832031 91.226562 92.679688 C 95.328125 96.554688 98.292969 101.195312 99.871094 106.230469 L 101.992188 106.230469 L 101.992188 85.800781 C 101.992188 85.800781 92.820312 84.65625 92.820312 91.285156 C 91.644531 90.25 90.316406 89.347656 88.878906 88.589844 C 87.378906 87.820312 85.792969 87.183594 84.144531 86.691406 C 82.171875 86.097656 80.089844 85.804688 77.996094 85.828125 C 73.835938 85.855469 69.734375 86.679688 66 88.242188 C 61.863281 89.988281 58.226562 92.484375 55.351562 95.554688 C 51.933594 99.191406 49.328125 103.332031 47.660156 107.765625 C 45.617188 113.347656 44.640625 119.171875 44.765625 125.015625 C 44.640625 130.859375 45.617188 136.679688 47.660156 142.261719 C 49.304688 146.730469 51.9375 150.886719 55.417969 154.515625 C 58.421875 157.621094 62.207031 160.121094 66.492188 161.828125 C 70.511719 163.421875 74.894531 164.246094 79.328125 164.242188 C 82.625 164.261719 85.890625 163.710938 88.925781 162.625 C 91.933594 161.570312 94.667969 160.019531 96.964844 158.058594 C 99.320312 156.027344 101.253906 153.667969 102.683594 151.082031 C 104.21875 148.289062 105.171875 145.289062 105.507812 142.222656 L 103.390625 142.222656 Z M 103.390625 142.25 "/>
<path style=" stroke:none;fill-rule:nonzero;fill:rgb(100%,100%,100%);fill-opacity:1;" d="M 136.289062 153.289062 L 136.191406 153.289062 C 134.113281 153.289062 132.429688 151.855469 132.429688 150.09375 L 132.429688 89.707031 C 132.429688 87.941406 130.742188 86.511719 128.664062 86.511719 L 115.746094 86.511719 C 113.667969 86.511719 111.984375 87.941406 111.984375 89.707031 L 111.984375 93.375 C 111.984375 95.140625 113.667969 96.574219 115.746094 96.574219 L 116.683594 96.574219 C 118.761719 96.574219 120.449219 98.003906 120.449219 99.769531 L 120.449219 150.09375 C 120.449219 151.855469 118.761719 153.289062 116.683594 153.289062 L 115.746094 153.289062 C 113.675781 153.289062 111.992188 154.710938 111.984375 156.46875 L 111.984375 160.140625 C 111.984375 161.90625 113.667969 163.335938 115.746094 163.335938 L 137.113281 163.335938 C 139.191406 163.335938 140.875 161.90625 140.875 160.140625 L 140.875 156.46875 C 140.875 154.703125 139.191406 153.273438 137.113281 153.273438 Z M 136.289062 153.289062 "/>
<path style=" stroke:none;fill-rule:nonzero;fill:rgb(100%,100%,100%);fill-opacity:1;" d="M 201.386719 86.496094 L 149.554688 86.496094 C 147.472656 86.496094 145.789062 87.925781 145.789062 89.691406 L 145.789062 160.152344 C 145.789062 161.917969 147.472656 163.351562 149.554688 163.351562 L 201.335938 163.351562 C 203.417969 163.351562 205.101562 161.917969 205.101562 160.152344 L 205.101562 89.691406 C 205.09375 87.945312 203.441406 86.527344 201.386719 86.496094 Z M 161.597656 96.574219 L 189.339844 96.574219 L 157.769531 147.441406 L 157.769531 99.769531 C 157.765625 98.910156 158.167969 98.085938 158.890625 97.484375 C 159.613281 96.882812 160.589844 96.554688 161.597656 96.574219 Z M 189.390625 153.289062 L 161.632812 153.289062 L 193.152344 102.390625 L 193.152344 150.078125 C 193.15625 150.929688 192.761719 151.746094 192.058594 152.347656 C 191.351562 152.949219 190.390625 153.289062 189.390625 153.289062 Z M 189.390625 153.289062 "/>
</g>
</svg>
